Newaita-dark/apps/48/vokoscreen.svg

<svg height="48pt" viewBox="0 0 48 48" width="48pt" xmlns="http://www.w3.org/2000/svg" xmlns:xlink="http://www.w3.org/1999/xlink"><linearGradient id="a" gradientUnits="userSpaceOnUse" x1="23.814782" x2="23.814782" y1="42.0509015" y2="44.03546731253"><stop offset="0" stop-opacity=".27451"/><stop offset="1" stop-opacity="0"/></linearGradient><linearGradient id="b"><stop offset="0" stop-opacity=".313725"/><stop offset=".222222" stop-opacity=".27451"/><stop offset="1" stop-opacity="0"/></linearGradient><radialGradient id="c" cx="450.90894" cy="189.57936" gradientTransform="matrix(.00000026 -.117199 -.210958 -.00000015 80.180536 95.393)" gradientUnits="userSpaceOnUse" r="21.166656" xlink:href="#b"/><radialGradient id="d" cx="450.90894" cy="189.57936" gradientTransform="matrix(-.00000026 .117199 .210958 .00000015 -32.550988 -11.29122)" gradientUnits="userSpaceOnUse" r="21.166656" xlink:href="#b"/><radialGradient id="e" cx="450.90894" cy="189.57936" gradientTransform="matrix(-.00000026 -.117199 .210958 -.00000015 -32.550988 95.393)" gradientUnits="userSpaceOnUse" r="21.166656" xlink:href="#b"/><radialGradient id="f" cx="450.90894" cy="189.57936" gradientTransform="matrix(.00000026 .117199 -.210958 .00000015 80.180534 -11.291221)" gradientUnits="userSpaceOnUse" r="21.166656" xlink:href="#b"/><linearGradient id="g"><stop offset="0" stop-color="#424242"/><stop offset="1" stop-color="#616161"/></linearGradient><linearGradient id="h" gradientTransform="matrix(.113024 0 0 .326118 -8.78102 50.462023)" gradientUnits="userSpaceOnUse" x1="306.91666" x2="305.95456" xlink:href="#g" y1="-25.791676" y2="-135.32916"/><linearGradient id="i"><stop offset="0" stop-color="#f44336"/><stop offset="1" stop-color="#ef5350"/></linearGradient><linearGradient id="j" gradientUnits="userSpaceOnUse" x1="27.783952" x2="27.783952" xlink:href="#i" y1="42.07148469922" y2="6.34925871465"/><linearGradient id="k" gradientTransform="matrix(.5 0 0 .571428 -105.83347 106.33793)" gradientUnits="userSpaceOnUse" x1="444.5" x2="444.5" xlink:href="#g" y1="185.875" y2="148.83333"/><linearGradient id="l" gradientTransform="matrix(.5 0 0 .571428 -63.500116 106.33793)" gradientUnits="userSpaceOnUse" x1="444.5" x2="444.5" xlink:href="#g" y1="185.875" y2="148.83333"/><linearGradient id="m" gradientTransform="matrix(.5 0 0 .571428 -21.166803 106.33793)" gradientUnits="userSpaceOnUse" x1="444.5" x2="444.5" xlink:href="#g" y1="185.875" y2="148.83333"/><linearGradient id="n" gradientTransform="matrix(.5 0 0 .571428 169.3332 106.33793)" gradientUnits="userSpaceOnUse" x1="444.5" x2="444.5" xlink:href="#g" y1="185.875" y2="148.83333"/><linearGradient id="o" gradientUnits="userSpaceOnUse" x1="23.814786" x2="23.814786" xlink:href="#i" y1="42.0509015" y2="6.3287225"/><path d="m6.945312 42.050781h33.738282v1.984375h-33.738282zm0 0" fill="url(#a)"/><path d="m40.683594 42.050781h3.96875v-1.984375h-3.96875zm0 0" fill="url(#c)"/><path d="m6.945312 42.050781h-3.96875v1.984375h3.96875zm0 0" fill="url(#d)"/><path d="m6.945312 42.050781h-3.96875v-1.984375h3.96875zm0 0" fill="url(#e)"/><path d="m40.683594 42.050781h3.96875v1.984375h-3.96875zm0 0" fill="url(#f)"/><path d="m4.960938 6.328125h37.707031c1.097656 0 1.984375.890625 1.984375 1.984375v31.753906c0 1.097656-.886719 1.984375-1.984375 1.984375h-37.707031c-1.09375 0-1.984376-.886719-1.984376-1.984375v-31.753906c0-1.09375.890626-1.984375 1.984376-1.984375zm0 0" fill="url(#h)"/><path d="m4.960938 42.070312c-1.097657 0-1.984376-.886718-1.984376-1.984374v-.515626c0 1.097657.886719 1.984376 1.984376 1.984376h37.707031c1.101562 0 1.984375-.886719 1.984375-1.984376v.515626c0 1.097656-.882813 1.984374-1.984375 1.984374zm0 0" fill-opacity=".235294"/><path d="m9.921875 36.117188c-1.097656 0-1.984375.886718-1.984375 1.984374v2.976563c0 .550781.441406.992187.992188.992187h29.769531c.550781 0 .992187-.441406.992187-.992187v-2.976563c0-1.097656-.886718-1.984374-1.984375-1.984374zm0 0" fill="url(#j)"/><g stroke="#212121" stroke-linecap="round" stroke-width="3" transform="matrix(.093759 0 0 .093759 0 20.158175)"><path d="m116.40555 191.37786c5.87444 0 10.582323 4.749546 10.582323 10.582322 0 5.874439-4.707883 10.582323-10.582323 10.582323-5.832776 0-10.582322-4.707884-10.582322-10.582323 0-5.832776 4.749546-10.582322 10.582322-10.582322zm0 0" fill="url(#k)"/><path d="m158.734842 191.37786c5.874439 0 10.582322 4.749546 10.582322 10.582322 0 5.874439-4.707883 10.582323-10.582322 10.582323-5.832777 0-10.582323-4.707884-10.582323-10.582323 0-5.832776 4.749546-10.582322 10.582323-10.582322zm0 0" fill="url(#l)"/><path d="m201.064133 191.37786c5.874439 0 10.582322 4.749546 10.582322 10.582322 0 5.874439-4.707883 10.582323-10.582322 10.582323-5.832777 0-10.582323-4.707884-10.582323-10.582323 0-5.832776 4.749546-10.582322 10.582323-10.582322zm0 0" fill="url(#m)"/><path d="m391.587605 191.37786c5.832777 0 10.582323 4.749546 10.582323 10.582322 0 5.874439-4.749546 10.582323-10.582323 10.582323-5.832776 0-10.582323-4.707884-10.582323-10.582323 0-5.832776 4.749547-10.582322 10.582323-10.582322zm0 0" fill="url(#n)"/></g><path d="m9.921875 36.117188c-1.097656 0-1.984375.886718-1.984375 1.984374v.476563c0-1.101563.886719-1.984375 1.984375-1.984375h27.785156c1.097657 0 1.984375.882812 1.984375 1.984375v-.476563c0-1.097656-.886718-1.984374-1.984375-1.984374zm0 0" fill="#fff" fill-opacity=".392157"/><path d="m7.9375 40.582031v.496094c0 .550781.441406.992187.992188.992187h29.769531c.550781 0 .992187-.441406.992187-.992187v-.496094c0 .550781-.441406.992188-.992187.992188h-29.769531c-.550782 0-.992188-.441407-.992188-.992188zm0 0" fill-opacity=".235294"/><path d="m9.921875 35.976562c-1.175781 0-2.125.949219-2.125 2.125v2.976563c0 .625.507813 1.132813 1.132813 1.132813h29.769531c.625 0 1.132812-.507813 1.132812-1.132813v-2.976563c0-1.175781-.949219-2.125-2.125-2.125zm0 .28125h27.785156c1.023438 0 1.84375.820313 1.84375 1.84375v2.976563c0 .476563-.378906.851563-.851562.851563h-29.769531c-.472657 0-.851563-.375-.851563-.851563v-2.976563c0-1.023437.820313-1.84375 1.84375-1.84375zm0 0" fill="#212121"/><path d="m4.960938 6.441406c-1.097657 0-1.984376.886719-1.984376 1.988282v.265624c0-1.097656.886719-1.984374 1.984376-1.984374h37.707031c1.101562 0 1.984375.886718 1.984375 1.984374v-.265624c0-1.101563-.882813-1.988282-1.984375-1.988282zm0 0" fill="#fff" fill-opacity=".392157"/><path d="m4.960938 6.1875c-1.175782 0-2.125.949219-2.125 2.125v31.753906c0 1.175782.949218 2.125 2.125 2.125h37.707031c1.175781 0 2.125-.949218 2.125-2.125v-31.753906c0-1.175781-.949219-2.125-2.125-2.125zm0 .28125h37.707031c1.023437 0 1.84375.820312 1.84375 1.84375v31.753906c0 1.023438-.820313 1.84375-1.84375 1.84375h-37.707031c-1.023438 0-1.84375-.820312-1.84375-1.84375v-31.753906c0-1.023438.820312-1.84375 1.84375-1.84375zm0 0" fill="#212121"/><path d="m23.816406 14.265625c3.835938 0 6.945313 3.109375 6.945313 6.949219 0 3.835937-3.109375 6.945312-6.945313 6.945312-3.835937 0-6.949218-3.109375-6.949218-6.945312 0-3.839844 3.113281-6.949219 6.949218-6.949219zm0 0" fill="url(#o)"/><path d="m23.816406 14.265625c-3.851562 0-6.949218 3.097656-6.949218 6.949219 0 .058594.003906.121094.003906.183594.097656-3.761719 3.15625-6.757813 6.945312-6.757813 3.785156 0 6.84375 2.996094 6.941406 6.757813.003907-.0625.003907-.125.003907-.183594 0-3.851563-3.097657-6.949219-6.945313-6.949219zm0 0" fill="#fff" fill-opacity=".392157"/><path d="m16.875 21.605469c-.003906.082031-.007812.167969-.007812.25 0 3.847656 3.097656 6.945312 6.949218 6.945312 3.847656 0 6.945313-3.097656 6.945313-6.945312 0-.082031-.003907-.167969-.003907-.25-.132812 3.734375-3.179687 6.699219-6.941406 6.699219-3.765625 0-6.8125-2.964844-6.941406-6.699219zm0 0" fill-opacity=".235294"/><path d="m254.017409-62.847863c40.91276 0 74.07626 33.1635 74.07626 74.117922 0 40.91276-33.1635 74.076259-74.07626 74.076259-40.912759 0-74.117922-33.163499-74.117922-74.076259 0-40.954422 33.205163-74.117922 74.117922-74.117922zm0 0" fill="none" stroke="#212121" stroke-linecap="round" stroke-linejoin="round" stroke-width="3" transform="matrix(.093759 0 0 .093759 0 20.158175)"/></svg>

<?xml version="1.0" encoding="UTF-8"?>
<svg xmlns="http://www.w3.org/2000/svg" xmlns:xlink="http://www.w3.org/1999/xlink" width="48pt" height="48pt" viewBox="0 0 48 48" version="1.1">
<defs>
<linearGradient id="linear0" gradientUnits="userSpaceOnUse" x1="254" y1="233.5" x2="254" y2="254.66667" gradientTransform="matrix(0.093759,0,0,0.093759,-0.00000375036,20.158175)">
<stop offset="0" style="stop-color:rgb(0%,0%,0%);stop-opacity:0.27451;"/>
<stop offset="1" style="stop-color:rgb(0%,0%,0%);stop-opacity:0;"/>
</linearGradient>
<radialGradient id="radial0" gradientUnits="userSpaceOnUse" cx="450.90894" cy="189.57936" fx="450.90894" fy="189.57936" r="21.166656" gradientTransform="matrix(0.000000261256,-0.117199,-0.210958,-0.000000152308,80.180536,95.393)">
<stop offset="0" style="stop-color:rgb(0%,0%,0%);stop-opacity:0.313725;"/>
<stop offset="0.222222" style="stop-color:rgb(0%,0%,0%);stop-opacity:0.27451;"/>
<stop offset="1" style="stop-color:rgb(0%,0%,0%);stop-opacity:0;"/>
</radialGradient>
<radialGradient id="radial1" gradientUnits="userSpaceOnUse" cx="450.90894" cy="189.57936" fx="450.90894" fy="189.57936" r="21.166656" gradientTransform="matrix(-0.000000261256,0.117199,0.210958,0.000000152308,-32.550988,-11.29122)">
<stop offset="0" style="stop-color:rgb(0%,0%,0%);stop-opacity:0.313725;"/>
<stop offset="0.222222" style="stop-color:rgb(0%,0%,0%);stop-opacity:0.27451;"/>
<stop offset="1" style="stop-color:rgb(0%,0%,0%);stop-opacity:0;"/>
</radialGradient>
<radialGradient id="radial2" gradientUnits="userSpaceOnUse" cx="450.90894" cy="189.57936" fx="450.90894" fy="189.57936" r="21.166656" gradientTransform="matrix(-0.000000261256,-0.117199,0.210958,-0.000000152308,-32.550988,95.393)">
<stop offset="0" style="stop-color:rgb(0%,0%,0%);stop-opacity:0.313725;"/>
<stop offset="0.222222" style="stop-color:rgb(0%,0%,0%);stop-opacity:0.27451;"/>
<stop offset="1" style="stop-color:rgb(0%,0%,0%);stop-opacity:0;"/>
</radialGradient>
<radialGradient id="radial3" gradientUnits="userSpaceOnUse" cx="450.90894" cy="189.57936" fx="450.90894" fy="189.57936" r="21.166656" gradientTransform="matrix(0.000000261256,0.117199,-0.210958,0.000000152308,80.180534,-11.291221)">
<stop offset="0" style="stop-color:rgb(0%,0%,0%);stop-opacity:0.313725;"/>
<stop offset="0.222222" style="stop-color:rgb(0%,0%,0%);stop-opacity:0.27451;"/>
<stop offset="1" style="stop-color:rgb(0%,0%,0%);stop-opacity:0;"/>
</radialGradient>
<linearGradient id="linear1" gradientUnits="userSpaceOnUse" x1="306.91666" y1="-25.791676" x2="305.95456" y2="-135.32916" gradientTransform="matrix(0.113024,0,0,0.326118,-8.78102,50.462023)">
<stop offset="0" style="stop-color:rgb(25.882353%,25.882353%,25.882353%);stop-opacity:1;"/>
<stop offset="1" style="stop-color:rgb(38.039216%,38.039216%,38.039216%);stop-opacity:1;"/>
</linearGradient>
<linearGradient id="linear2" gradientUnits="userSpaceOnUse" x1="1120" y1="1695.1182" x2="1120" y2="255.11812" gradientTransform="matrix(0.0248071,0,0,0.0248071,0,0.0205182)">
<stop offset="0" style="stop-color:rgb(95.686275%,26.27451%,21.176471%);stop-opacity:1;"/>
<stop offset="1" style="stop-color:rgb(93.72549%,32.54902%,31.372549%);stop-opacity:1;"/>
</linearGradient>
<linearGradient id="linear3" gradientUnits="userSpaceOnUse" x1="444.5" y1="185.875" x2="444.5" y2="148.83333" gradientTransform="matrix(0.5,0,0,0.571428,-105.83347,106.33793)">
<stop offset="0" style="stop-color:rgb(25.882353%,25.882353%,25.882353%);stop-opacity:1;"/>
<stop offset="1" style="stop-color:rgb(38.039216%,38.039216%,38.039216%);stop-opacity:1;"/>
</linearGradient>
<linearGradient id="linear4" gradientUnits="userSpaceOnUse" x1="444.5" y1="185.875" x2="444.5" y2="148.83333" gradientTransform="matrix(0.5,0,0,0.571428,-63.500116,106.33793)">
<stop offset="0" style="stop-color:rgb(25.882353%,25.882353%,25.882353%);stop-opacity:1;"/>
<stop offset="1" style="stop-color:rgb(38.039216%,38.039216%,38.039216%);stop-opacity:1;"/>
</linearGradient>
<linearGradient id="linear5" gradientUnits="userSpaceOnUse" x1="444.5" y1="185.875" x2="444.5" y2="148.83333" gradientTransform="matrix(0.5,0,0,0.571428,-21.166803,106.33793)">
<stop offset="0" style="stop-color:rgb(25.882353%,25.882353%,25.882353%);stop-opacity:1;"/>
<stop offset="1" style="stop-color:rgb(38.039216%,38.039216%,38.039216%);stop-opacity:1;"/>
</linearGradient>
<linearGradient id="linear6" gradientUnits="userSpaceOnUse" x1="444.5" y1="185.875" x2="444.5" y2="148.83333" gradientTransform="matrix(0.5,0,0,0.571428,169.3332,106.33793)">
<stop offset="0" style="stop-color:rgb(25.882353%,25.882353%,25.882353%);stop-opacity:1;"/>
<stop offset="1" style="stop-color:rgb(38.039216%,38.039216%,38.039216%);stop-opacity:1;"/>
</linearGradient>
<linearGradient id="linear7" gradientUnits="userSpaceOnUse" x1="254" y1="233.5" x2="254" y2="-147.5" gradientTransform="matrix(0.093759,0,0,0.093759,0,20.158175)">
<stop offset="0" style="stop-color:rgb(95.686275%,26.27451%,21.176471%);stop-opacity:1;"/>
<stop offset="1" style="stop-color:rgb(93.72549%,32.54902%,31.372549%);stop-opacity:1;"/>
</linearGradient>
</defs>
<g id="surface1">
<path style=" stroke:none;fill-rule:nonzero;fill:url(#linear0);" d="M 6.945312 42.050781 L 40.683594 42.050781 L 40.683594 44.035156 L 6.945312 44.035156 Z M 6.945312 42.050781 "/>
<path style=" stroke:none;fill-rule:nonzero;fill:url(#radial0);" d="M 40.683594 42.050781 L 44.652344 42.050781 L 44.652344 40.066406 L 40.683594 40.066406 Z M 40.683594 42.050781 "/>
<path style=" stroke:none;fill-rule:nonzero;fill:url(#radial1);" d="M 6.945312 42.050781 L 2.976562 42.050781 L 2.976562 44.035156 L 6.945312 44.035156 Z M 6.945312 42.050781 "/>
<path style=" stroke:none;fill-rule:nonzero;fill:url(#radial2);" d="M 6.945312 42.050781 L 2.976562 42.050781 L 2.976562 40.066406 L 6.945312 40.066406 Z M 6.945312 42.050781 "/>
<path style=" stroke:none;fill-rule:nonzero;fill:url(#radial3);" d="M 40.683594 42.050781 L 44.652344 42.050781 L 44.652344 44.035156 L 40.683594 44.035156 Z M 40.683594 42.050781 "/>
<path style=" stroke:none;fill-rule:nonzero;fill:url(#linear1);" d="M 4.960938 6.328125 L 42.667969 6.328125 C 43.765625 6.328125 44.652344 7.21875 44.652344 8.3125 L 44.652344 40.066406 C 44.652344 41.164062 43.765625 42.050781 42.667969 42.050781 L 4.960938 42.050781 C 3.867188 42.050781 2.976562 41.164062 2.976562 40.066406 L 2.976562 8.3125 C 2.976562 7.21875 3.867188 6.328125 4.960938 6.328125 Z M 4.960938 6.328125 "/>
<path style=" stroke:none;fill-rule:nonzero;fill:rgb(0%,0%,0%);fill-opacity:0.235294;" d="M 4.960938 42.070312 C 3.863281 42.070312 2.976562 41.183594 2.976562 40.085938 L 2.976562 39.570312 C 2.976562 40.667969 3.863281 41.554688 4.960938 41.554688 L 42.667969 41.554688 C 43.769531 41.554688 44.652344 40.667969 44.652344 39.570312 L 44.652344 40.085938 C 44.652344 41.183594 43.769531 42.070312 42.667969 42.070312 Z M 4.960938 42.070312 "/>
<path style=" stroke:none;fill-rule:nonzero;fill:url(#linear2);" d="M 9.921875 36.117188 C 8.824219 36.117188 7.9375 37.003906 7.9375 38.101562 L 7.9375 41.078125 C 7.9375 41.628906 8.378906 42.070312 8.929688 42.070312 L 38.699219 42.070312 C 39.25 42.070312 39.691406 41.628906 39.691406 41.078125 L 39.691406 38.101562 C 39.691406 37.003906 38.804688 36.117188 37.707031 36.117188 Z M 9.921875 36.117188 "/>
<path style="fill-rule:nonzero;fill:url(#linear3);stroke-width:3;stroke-linecap:round;stroke-linejoin:miter;stroke:rgb(12.941176%,12.941176%,12.941176%);stroke-opacity:1;stroke-miterlimit:4;" d="M 116.40555 191.37786 C 122.27999 191.37786 126.987873 196.127406 126.987873 201.960182 C 126.987873 207.834621 122.27999 212.542505 116.40555 212.542505 C 110.572774 212.542505 105.823228 207.834621 105.823228 201.960182 C 105.823228 196.127406 110.572774 191.37786 116.40555 191.37786 Z M 116.40555 191.37786 " transform="matrix(0.093759,0,0,0.093759,0,20.158175)"/>
<path style="fill-rule:nonzero;fill:url(#linear4);stroke-width:3;stroke-linecap:round;stroke-linejoin:miter;stroke:rgb(12.941176%,12.941176%,12.941176%);stroke-opacity:1;stroke-miterlimit:4;" d="M 158.734842 191.37786 C 164.609281 191.37786 169.317164 196.127406 169.317164 201.960182 C 169.317164 207.834621 164.609281 212.542505 158.734842 212.542505 C 152.902065 212.542505 148.152519 207.834621 148.152519 201.960182 C 148.152519 196.127406 152.902065 191.37786 158.734842 191.37786 Z M 158.734842 191.37786 " transform="matrix(0.093759,0,0,0.093759,0,20.158175)"/>
<path style="fill-rule:nonzero;fill:url(#linear5);stroke-width:3;stroke-linecap:round;stroke-linejoin:miter;stroke:rgb(12.941176%,12.941176%,12.941176%);stroke-opacity:1;stroke-miterlimit:4;" d="M 201.064133 191.37786 C 206.938572 191.37786 211.646455 196.127406 211.646455 201.960182 C 211.646455 207.834621 206.938572 212.542505 201.064133 212.542505 C 195.231356 212.542505 190.48181 207.834621 190.48181 201.960182 C 190.48181 196.127406 195.231356 191.37786 201.064133 191.37786 Z M 201.064133 191.37786 " transform="matrix(0.093759,0,0,0.093759,0,20.158175)"/>
<path style="fill-rule:nonzero;fill:url(#linear6);stroke-width:3;stroke-linecap:round;stroke-linejoin:miter;stroke:rgb(12.941176%,12.941176%,12.941176%);stroke-opacity:1;stroke-miterlimit:4;" d="M 391.587605 191.37786 C 397.420382 191.37786 402.169928 196.127406 402.169928 201.960182 C 402.169928 207.834621 397.420382 212.542505 391.587605 212.542505 C 385.754829 212.542505 381.005282 207.834621 381.005282 201.960182 C 381.005282 196.127406 385.754829 191.37786 391.587605 191.37786 Z M 391.587605 191.37786 " transform="matrix(0.093759,0,0,0.093759,0,20.158175)"/>
<path style=" stroke:none;fill-rule:nonzero;fill:rgb(100%,100%,100%);fill-opacity:0.392157;" d="M 9.921875 36.117188 C 8.824219 36.117188 7.9375 37.003906 7.9375 38.101562 L 7.9375 38.578125 C 7.9375 37.476562 8.824219 36.59375 9.921875 36.59375 L 37.707031 36.59375 C 38.804688 36.59375 39.691406 37.476562 39.691406 38.578125 L 39.691406 38.101562 C 39.691406 37.003906 38.804688 36.117188 37.707031 36.117188 Z M 9.921875 36.117188 "/>
<path style=" stroke:none;fill-rule:nonzero;fill:rgb(0%,0%,0%);fill-opacity:0.235294;" d="M 7.9375 40.582031 L 7.9375 41.078125 C 7.9375 41.628906 8.378906 42.070312 8.929688 42.070312 L 38.699219 42.070312 C 39.25 42.070312 39.691406 41.628906 39.691406 41.078125 L 39.691406 40.582031 C 39.691406 41.132812 39.25 41.574219 38.699219 41.574219 L 8.929688 41.574219 C 8.378906 41.574219 7.9375 41.132812 7.9375 40.582031 Z M 7.9375 40.582031 "/>
<path style=" stroke:none;fill-rule:nonzero;fill:rgb(12.941176%,12.941176%,12.941176%);fill-opacity:1;" d="M 9.921875 35.976562 C 8.746094 35.976562 7.796875 36.925781 7.796875 38.101562 L 7.796875 41.078125 C 7.796875 41.703125 8.304688 42.210938 8.929688 42.210938 L 38.699219 42.210938 C 39.324219 42.210938 39.832031 41.703125 39.832031 41.078125 L 39.832031 38.101562 C 39.832031 36.925781 38.882812 35.976562 37.707031 35.976562 Z M 9.921875 36.257812 L 37.707031 36.257812 C 38.730469 36.257812 39.550781 37.078125 39.550781 38.101562 L 39.550781 41.078125 C 39.550781 41.554688 39.171875 41.929688 38.699219 41.929688 L 8.929688 41.929688 C 8.457031 41.929688 8.078125 41.554688 8.078125 41.078125 L 8.078125 38.101562 C 8.078125 37.078125 8.898438 36.257812 9.921875 36.257812 Z M 9.921875 36.257812 "/>
<path style=" stroke:none;fill-rule:nonzero;fill:rgb(100%,100%,100%);fill-opacity:0.392157;" d="M 4.960938 6.441406 C 3.863281 6.441406 2.976562 7.328125 2.976562 8.429688 L 2.976562 8.695312 C 2.976562 7.597656 3.863281 6.710938 4.960938 6.710938 L 42.667969 6.710938 C 43.769531 6.710938 44.652344 7.597656 44.652344 8.695312 L 44.652344 8.429688 C 44.652344 7.328125 43.769531 6.441406 42.667969 6.441406 Z M 4.960938 6.441406 "/>
<path style=" stroke:none;fill-rule:nonzero;fill:rgb(12.941176%,12.941176%,12.941176%);fill-opacity:1;" d="M 4.960938 6.1875 C 3.785156 6.1875 2.835938 7.136719 2.835938 8.3125 L 2.835938 40.066406 C 2.835938 41.242188 3.785156 42.191406 4.960938 42.191406 L 42.667969 42.191406 C 43.84375 42.191406 44.792969 41.242188 44.792969 40.066406 L 44.792969 8.3125 C 44.792969 7.136719 43.84375 6.1875 42.667969 6.1875 Z M 4.960938 6.46875 L 42.667969 6.46875 C 43.691406 6.46875 44.511719 7.289062 44.511719 8.3125 L 44.511719 40.066406 C 44.511719 41.089844 43.691406 41.910156 42.667969 41.910156 L 4.960938 41.910156 C 3.9375 41.910156 3.117188 41.089844 3.117188 40.066406 L 3.117188 8.3125 C 3.117188 7.289062 3.9375 6.46875 4.960938 6.46875 Z M 4.960938 6.46875 "/>
<path style=" stroke:none;fill-rule:nonzero;fill:url(#linear7);" d="M 23.816406 14.265625 C 27.652344 14.265625 30.761719 17.375 30.761719 21.214844 C 30.761719 25.050781 27.652344 28.160156 23.816406 28.160156 C 19.980469 28.160156 16.867188 25.050781 16.867188 21.214844 C 16.867188 17.375 19.980469 14.265625 23.816406 14.265625 Z M 23.816406 14.265625 "/>
<path style=" stroke:none;fill-rule:nonzero;fill:rgb(100%,100%,100%);fill-opacity:0.392157;" d="M 23.816406 14.265625 C 19.964844 14.265625 16.867188 17.363281 16.867188 21.214844 C 16.867188 21.273438 16.871094 21.335938 16.871094 21.398438 C 16.96875 17.636719 20.027344 14.640625 23.816406 14.640625 C 27.601562 14.640625 30.660156 17.636719 30.757812 21.398438 C 30.761719 21.335938 30.761719 21.273438 30.761719 21.214844 C 30.761719 17.363281 27.664062 14.265625 23.816406 14.265625 Z M 23.816406 14.265625 "/>
<path style=" stroke:none;fill-rule:nonzero;fill:rgb(0%,0%,0%);fill-opacity:0.235294;" d="M 16.875 21.605469 C 16.871094 21.6875 16.867188 21.773438 16.867188 21.855469 C 16.867188 25.703125 19.964844 28.800781 23.816406 28.800781 C 27.664062 28.800781 30.761719 25.703125 30.761719 21.855469 C 30.761719 21.773438 30.757812 21.6875 30.757812 21.605469 C 30.625 25.339844 27.578125 28.304688 23.816406 28.304688 C 20.050781 28.304688 17.003906 25.339844 16.875 21.605469 Z M 16.875 21.605469 "/>
<path style="fill:none;stroke-width:3;stroke-linecap:round;stroke-linejoin:round;stroke:rgb(12.941176%,12.941176%,12.941176%);stroke-opacity:1;stroke-miterlimit:4;" d="M 254.017409 -62.847863 C 294.930169 -62.847863 328.093669 -29.684363 328.093669 11.270059 C 328.093669 52.182819 294.930169 85.346318 254.017409 85.346318 C 213.10465 85.346318 179.899487 52.182819 179.899487 11.270059 C 179.899487 -29.684363 213.10465 -62.847863 254.017409 -62.847863 Z M 254.017409 -62.847863 " transform="matrix(0.093759,0,0,0.093759,0,20.158175)"/>
</g>
</svg>
